findly-builder/apps/searchassist/src/assets/icons/trashIcon.svg

<?xml version="1.0" encoding="UTF-8"?>
<svg width="11px" height="12px" viewBox="0 0 11 12" version="1.1" xmlns="http://www.w3.org/2000/svg" xmlns:xlink="http://www.w3.org/1999/xlink">
    <!-- Generator: Sketch 52.3 (67297) - http://www.bohemiancoding.com/sketch -->
    <title>trashIcon</title>
    <desc>Created with Sketch.</desc>
    <g id="Page-1" stroke="none" stroke-width="1" fill="none" fill-rule="evenodd">
        <path d="M3.71428571,9.83928571 L3.71428571,4.73214286 C3.71428571,4.66443419 3.69252254,4.60881718 3.64899554,4.56529018 C3.60546853,4.52176318 3.54985153,4.5 3.48214286,4.5 L3.01785714,4.5 C2.95014847,4.5 2.89453147,4.52176318 2.85100446,4.56529018 C2.80747746,4.60881718 2.78571429,4.66443419 2.78571429,4.73214286 L2.78571429,9.83928571 C2.78571429,9.90699439 2.80747746,9.96261139 2.85100446,10.0061384 C2.89453147,10.0496654 2.95014847,10.0714286 3.01785714,10.0714286 L3.48214286,10.0714286 C3.54985153,10.0714286 3.60546853,10.0496654 3.64899554,10.0061384 C3.69252254,9.96261139 3.71428571,9.90699439 3.71428571,9.83928571 Z M5.57142857,9.83928571 L5.57142857,4.73214286 C5.57142857,4.66443419 5.5496654,4.60881718 5.50613839,4.56529018 C5.46261139,4.52176318 5.40699439,4.5 5.33928571,4.5 L4.875,4.5 C4.80729133,4.5 4.75167432,4.52176318 4.70814732,4.56529018 C4.66462032,4.60881718 4.64285714,4.66443419 4.64285714,4.73214286 L4.64285714,9.83928571 C4.64285714,9.90699439 4.66462032,9.96261139 4.70814732,10.0061384 C4.75167432,10.0496654 4.80729133,10.0714286 4.875,10.0714286 L5.33928571,10.0714286 C5.40699439,10.0714286 5.46261139,10.0496654 5.50613839,10.0061384 C5.5496654,9.96261139 5.57142857,9.90699439 5.57142857,9.83928571 Z M7.42857143,9.83928571 L7.42857143,4.73214286 C7.42857143,4.66443419 7.40680825,4.60881718 7.36328125,4.56529018 C7.31975425,4.52176318 7.26413724,4.5 7.19642857,4.5 L6.73214286,4.5 C6.66443419,4.5 6.60881718,4.52176318 6.56529018,4.56529018 C6.52176318,4.60881718 6.5,4.66443419 6.5,4.73214286 L6.5,9.83928571 C6.5,9.90699439 6.52176318,9.96261139 6.56529018,10.0061384 C6.60881718,10.0496654 6.66443419,10.0714286 6.73214286,10.0714286 L7.19642857,10.0714286 C7.26413724,10.0714286 7.31975425,10.0496654 7.36328125,10.0061384 C7.40680825,9.96261139 7.42857143,9.90699439 7.42857143,9.83928571 Z M3.48214286,2.64285714 L6.73214286,2.64285714 L6.38392857,1.79408482 C6.35007424,1.75055782 6.30896602,1.72395838 6.26060268,1.71428571 L3.9609375,1.71428571 C3.91257416,1.72395838 3.87146594,1.75055782 3.83761161,1.79408482 L3.48214286,2.64285714 Z M10.2142857,2.875 L10.2142857,3.33928571 C10.2142857,3.40699439 10.1925225,3.46261139 10.1489955,3.50613839 C10.1054685,3.5496654 10.0498515,3.57142857 9.98214286,3.57142857 L9.28571429,3.57142857 L9.28571429,10.4486607 C9.28571429,10.8500764 9.17206215,11.1970782 8.94475446,11.4896763 C8.71744678,11.7822745 8.44419802,11.9285714 8.125,11.9285714 L2.08928571,11.9285714 C1.77008769,11.9285714 1.49683893,11.7871108 1.26953125,11.5041853 C1.04222357,11.2212597 0.928571429,10.8790943 0.928571429,10.4776786 L0.928571429,3.57142857 L0.232142857,3.57142857 C0.164434185,3.57142857 0.108817182,3.5496654 0.0652901786,3.50613839 C0.0217631752,3.46261139 0,3.40699439 0,3.33928571 L0,2.875 C0,2.80729133 0.0217631752,2.75167432 0.0652901786,2.70814732 C0.108817182,2.66462032 0.164434185,2.64285714 0.232142857,2.64285714 L2.47377232,2.64285714 L2.98158482,1.43136161 C3.05412983,1.25241726 3.18470888,1.10007503 3.37332589,0.974330357 C3.56194291,0.848585681 3.75297522,0.785714286 3.94642857,0.785714286 L6.26785714,0.785714286 C6.46131049,0.785714286 6.65234281,0.848585681 6.84095982,0.974330357 C7.02957684,1.10007503 7.16015589,1.25241726 7.23270089,1.43136161 L7.74051339,2.64285714 L9.98214286,2.64285714 C10.0498515,2.64285714 10.1054685,2.66462032 10.1489955,2.70814732 C10.1925225,2.75167432 10.2142857,2.80729133 10.2142857,2.875 Z" id="trashIcon" fill="#FF001F"></path>
    </g>
</svg>

<svg width="11" height="12" xmlns="http://www.w3.org/2000/svg"><path d="M3.714 9.84V4.731a.226.226 0 0 0-.065-.167.226.226 0 0 0-.167-.065h-.464a.226.226 0 0 0-.167.065.226.226 0 0 0-.065.167V9.84a.223.223 0 0 0 .232.232h.464a.226.226 0 0 0 .167-.065.226.226 0 0 0 .065-.167Zm1.857 0V4.731a.226.226 0 0 0-.065-.167.226.226 0 0 0-.167-.065h-.464a.226.226 0 0 0-.167.065.226.226 0 0 0-.065.167V9.84c0 .068.022.124.065.167.044.044.1.065.167.065h.464a.226.226 0 0 0 .167-.065.226.226 0 0 0 .065-.167Zm1.858 0V4.731a.226.226 0 0 0-.066-.167.226.226 0 0 0-.167-.065h-.464a.226.226 0 0 0-.167.065.226.226 0 0 0-.065.167V9.84c0 .068.022.124.065.167.044.044.1.065.167.065h.464a.226.226 0 0 0 .167-.065.226.226 0 0 0 .066-.167ZM3.482 2.642h3.25l-.348-.849a.205.205 0 0 0-.123-.08h-2.3a.205.205 0 0 0-.123.08l-.356.849Zm6.732.232v.464a.226.226 0 0 1-.065.167.226.226 0 0 1-.167.065h-.696v6.878c0 .401-.114.748-.341 1.04-.228.293-.5.44-.82.44H2.089c-.319 0-.592-.142-.82-.425-.227-.283-.34-.625-.34-1.026V3.57H.232a.226.226 0 0 1-.167-.065A.226.226 0 0 1 0 3.34v-.464c0-.068.022-.123.065-.167a.226.226 0 0 1 .167-.065h2.242l.508-1.212a1.01 1.01 0 0 1 .391-.457 1.03 1.03 0 0 1 .573-.188h2.322c.193 0 .384.063.573.188.189.126.32.278.392.457l.508 1.212h2.241c.068 0 .123.022.167.065.044.044.065.1.065.167Z" fill="#FF001F" fill-rule="evenodd"/></svg>
